icons/cloud-arrow-down.svg

<svg xmlns="http://www.w3.org/2000/svg" width="24" height="24" viewBox="0 0 24 24">
  <path d="M12.5,3 C16.918278,3 20.5,6.581722 20.5,11 C20.5,11.1204206 20.4973322,11.2405319 20.4920144,11.3602705 L20.4920144,11.3602705 L20.472,11.654 L20.5287365,11.6859719 C21.9683651,12.5292172 22.9183208,14.0574067 22.9949844,15.7749408 L22.9949844,15.7749408 L23,16 C23,18.6686219 20.9044736,20.8633628 18.2241536,20.9948042 L18.2241536,20.9948042 L18,21 L6.5,21 C6.38859112,21 6.28147754,20.9817932 6.18145173,20.9482064 L6.18145173,20.9482064 L6.166,20.942 L5.94889404,20.9081606 C3.19270368,20.4215684 1.11197825,18.064907 1.0043751,15.2308104 L1.0043751,15.2308104 L1,15 C1,12.5890868 2.43448394,10.4577805 4.56984355,9.51249345 L4.56984355,9.51249345 L4.646,9.48 L4.66919046,9.36089212 C5.4117318,5.78500472 8.52762508,3.12063681 12.2455902,3.00398632 L12.2455902,3.00398632 Z M12,9 C11.4871642,9 11.0644928,9.38604019 11.0067277,9.88337887 L11,10 L11,13.585 L9.70710678,12.2928932 C9.31658249,11.9023689 8.68341751,11.9023689 8.29289322,12.2928932 C7.93240926,12.6533772 7.90467972,13.2206082 8.20970461,13.6128994 L8.29289322,13.7071068 L11.2928932,16.7071068 L11.347434,16.757792 L11.347434,16.757792 L11.359,16.767 L11.374551,16.7803112 L11.378,16.783 L11.3832499,16.787214 L11.38,16.784 L11.4046934,16.8036654 L11.4046934,16.8036654 C11.4288693,16.8215099 11.453725,16.8382813 11.4793398,16.8539326 L11.5159379,16.8753288 L11.5159379,16.8753288 C11.5357061,16.8862061 11.5561086,16.8966234 11.5769009,16.9063462 L11.628664,16.9287745 L11.628664,16.9287745 C11.6484208,16.9366843 11.6682023,16.9438775 11.6882636,16.9504533 C11.7031487,16.9552713 11.7185367,16.9599023 11.734007,16.9641549 C11.7555635,16.9701664 11.7772539,16.9753602 11.7992059,16.9798348 C11.8166247,16.9832978 11.834051,16.9863719 11.8515331,16.9889822 L11.909968,16.996002 L11.909968,16.996002 C11.9208131,16.99693 11.9308872,16.9976744 11.9409686,16.9982669 L11.980824,16.9998198 C11.9872016,16.9999398 11.9935938,17 12,17 L12.019,16.999 L12.045,16.998 L12.08,16.996 L12.1489612,16.9889807 L12.1489612,16.9889807 C12.165949,16.9863719 12.1833753,16.9832978 12.2007258,16.9797599 C12.2227461,16.9753602 12.2444365,16.9701664 12.2658396,16.964279 C12.2814633,16.9599023 12.2968513,16.9552713 12.3121425,16.9502619 C12.3317977,16.9438775 12.3515792,16.9366843 12.3710585,16.928896 L12.4232215,16.9063266 L12.4232215,16.9063266 C12.4438914,16.8966234 12.4642939,16.8862061 12.484277,16.8751242 C12.4963944,16.8685012 12.5086131,16.8613931 12.5207088,16.8540045 C12.546275,16.8382813 12.5711307,16.8215099 12.5951593,16.8036865 C12.6012086,16.7992821 12.6070733,16.7948255 12.6128994,16.7902954 C12.6196628,16.7849289 12.6225624,16.7826279 12.625449,16.7803112 L12.7071068,16.7071068 L15.7071068,13.7071068 C16.0976311,13.3165825 16.0976311,12.6834175 15.7071068,12.2928932 C15.3466228,11.9324093 14.7793918,11.9046797 14.3871006,12.2097046 L14.2928932,12.2928932 L13,13.585 L13,10 C13,9.44771525 12.5522847,9 12,9 Z"/>
</svg>

<svg xmlns="http://www.w3.org/2000/svg" viewBox="0 0 24 24">
  <path d="M12.5 3a8 8 0 0 1 8 8.36l-.03.3.06.03a5 5 0 0 1 2.46 4.08L23 16a5 5 0 0 1-4.78 5H6.5a1 1 0 0 1-.32-.05h-.01l-.22-.04A6 6 0 0 1 1 15.23V15a6 6 0 0 1 3.57-5.49l.08-.03.02-.12A8 8 0 0 1 12.25 3zM12 9a1 1 0 0 0-1 .88v3.71l-1.3-1.3a1 1 0 0 0-1.49 1.32l.08.1 3 3 .06.05.02.02h.01l.02.02.08.05.04.03.06.03.05.02a.99.99 0 0 0 .22.06h.09l.04.01h.1l.07-.01a1.08 1.08 0 0 0 .22-.06l.05-.02a1.02 1.02 0 0 0 .2-.13l.09-.07 3-3a1 1 0 0 0-1.32-1.5l-.1.08L13 13.6V10a1 1 0 0 0-1-1z"/>
</svg>
